dist/svg/u26CE.svg

<?xml version="1.0" encoding="UTF-8"?><svg id="a" xmlns="http://www.w3.org/2000/svg" viewBox="0 0 40 40"><g><rect x="3.5" y="3.5" width="33" height="33" rx="8" ry="8" fill="#786de7"/><path d="M30.759,17.854l-2.345-1.716c-.56,1.066-1.15,1.828-1.778,2.331V9.735h-2.475v9.462c-2.605-.349-4.688-4.043-8.321-4.233v-5.229h-2.475v5.692c-1.465,.638-2.894,1.941-4.123,4.091l2.345,1.652c.558-1.062,1.15-1.82,1.778-2.323v4.782c0,3.659,2.977,6.635,6.636,6.635s6.635-2.977,6.635-6.635v-1.744c1.465-.634,2.894-1.923,4.123-4.032Zm-10.758,9.936c-2.294,0-4.161-1.867-4.161-4.16v-5.516c2.605,.348,4.687,4.043,8.321,4.233v1.283c0,2.294-1.866,4.16-4.16,4.16Z" fill="#fff"/></g><rect width="40" height="40" transform="translate(40 40) rotate(-180)" fill="none" opacity=".1"/></svg>

<svg id="Layer_1" data-name="Layer 1" xmlns="http://www.w3.org/2000/svg" viewBox="0 0 40 40"><defs><style>.cls-1{fill:#786de7;}.cls-2{fill:#fff;}.cls-3{fill:none;opacity:0.1;}</style></defs><rect class="cls-1" x="3.5" y="3.5" width="33" height="33" rx="8"/><path class="cls-2" d="M30.759,17.854l-2.345-1.716a7.219,7.219,0,0,1-1.778,2.331V9.735H24.161V19.2c-2.606-.349-4.688-4.042-8.322-4.233V9.735H13.364v5.692a9.194,9.194,0,0,0-4.123,4.091l2.345,1.652a7.209,7.209,0,0,1,1.778-2.322V23.63a6.636,6.636,0,0,0,13.272,0V21.886A9.214,9.214,0,0,0,30.759,17.854ZM20,27.79a4.165,4.165,0,0,1-4.161-4.16V18.114c2.6.348,4.687,4.043,8.322,4.233V23.63A4.165,4.165,0,0,1,20,27.79Z"/><rect class="cls-3" width="40" height="40" transform="translate(40 40) rotate(-180)"/></svg>
